www/assets/icons/carpenter.svg

<svg width="24" height="24" viewBox="0 0 24 24" xmlns="http://www.w3.org/2000/svg" fill='currentColor'><path d="M20.0181 14.5375L7.28807 1.8075L3.39807 5.69749L11.5281 17.3675C10.7481 18.1475 10.7481 19.4175 11.5281 20.1975L12.9381 21.6075C13.7181 22.3875 14.9881 22.3875 15.7681 21.6075L20.0081 17.3675C20.7981 16.5875 20.7981 15.3175 20.0181 14.5375ZM14.3581 20.1875L12.9481 18.7775L17.1881 14.5375L18.5981 15.9475L14.3581 20.1875Z"/></svg>

<svg xmlns="http://www.w3.org/2000/svg" width="24" height="24" viewBox="0 0 24 24" fill='currentColor'><path d="M20.018 14.538 7.288 1.807l-3.89 3.89 8.13 11.67c-.78.78-.78 2.05 0 2.83l1.41 1.41c.78.78 2.05.78 2.83 0l4.24-4.24c.79-.78.79-2.05.01-2.83m-5.66 5.65-1.41-1.41 4.24-4.24 1.41 1.41z"/></svg>
